icon-themes/sifr_svg/cmd/sc_displaymode.svg

<svg viewBox="0 0 16 16" xmlns="http://www.w3.org/2000/svg"><path d="m0 1v14h16v-14zm2 2h12v10h-12zm1 1v2h10v-2zm0 3v5h4v-5zm6 0v5h4v-5z" fill="#555753"/></svg>

<svg xmlns="http://www.w3.org/2000/svg" viewBox="0 0 16 16">
  <path
     style="fill:#555753"
     d="M 0,1 V 15 H 16 V 1 Z M 2,3 H 14 V 13 H 2 Z M 3,4 V 6 H 13 V 4 Z m 0,3 v 5 H 7 V 7 Z m 6,0 v 5 h 4 V 7 Z"
     />
</svg>
